.local/share/icons/Gruvbox-Plus-Dark/panel/16/nm-tech-evdo.svg

<svg width="16" height="16" version="1.1" xmlns="http://www.w3.org/2000/svg">
  <defs>
    <style id="current-color-scheme" type="text/css">.ColorScheme-Text { color:#ebdbb2; } .ColorScheme-Highlight { color:#458588; } .ColorScheme-NeutralText { color:#fe8019; } .ColorScheme-PositiveText { color:#689d6a; } .ColorScheme-NegativeText { color:#fb4934; }</style>
  </defs>
  <path class="ColorScheme-Text" d="m12 15.5h-2.5v-4h2.5m-2.5 2h2.5" fill="none" stroke="currentColor" stroke-linejoin="round"/>
  <path class="ColorScheme-Text" d="m13.5 11v3l1 1.5 1-1.5v-3" fill="none" stroke="currentColor" stroke-linejoin="round"/>
</svg>

<svg xmlns="http://www.w3.org/2000/svg" width="16" height="16" version="1.1">
 <defs>
  <style id="style2" type="text/css">
   .ColorScheme-Text { color:#ebdbb2; } .ColorScheme-Highlight { color:#458588; }
  </style>
 </defs>
 <path style="fill:none;stroke:currentColor;stroke-linejoin:round" class="ColorScheme-Text" d="M 12,15.5 H 9.5 V 11.5 H 12 M 9.5,13.5 H 12"/>
 <path style="fill:none;stroke:currentColor;stroke-linejoin:round" class="ColorScheme-Text" d="M 13.5,11 V 14 L 14.5,15.5 15.5,14 V 11"/>
</svg>
